svgs/regular/calendar-day.svg

<svg xmlns="http://www.w3.org/2000/svg" viewBox="0 0 448 512"><!--! Font Awesome Pro 6.6.0 by @fontawesome - https://fontawesome.com License - https://fontawesome.com/license (Commercial License) Copyright 2024 Fonticons, Inc. --><path d="M128 0c13.3 0 24 10.7 24 24l0 40 144 0 0-40c0-13.3 10.7-24 24-24s24 10.7 24 24l0 40 40 0c35.3 0 64 28.7 64 64l0 16 0 48 0 256c0 35.3-28.7 64-64 64L64 512c-35.3 0-64-28.7-64-64L0 192l0-48 0-16C0 92.7 28.7 64 64 64l40 0 0-40c0-13.3 10.7-24 24-24zM400 192L48 192l0 256c0 8.8 7.2 16 16 16l320 0c8.8 0 16-7.2 16-16l0-256zM112 256l96 0c8.8 0 16 7.2 16 16l0 96c0 8.8-7.2 16-16 16l-96 0c-8.8 0-16-7.2-16-16l0-96c0-8.8 7.2-16 16-16z"/></svg>

<svg xmlns="http://www.w3.org/2000/svg" viewBox="0 0 448 512"><!--! Font Awesome Pro 6.4.0 by @fontawesome - https://fontawesome.com License - https://fontawesome.com/license (Commercial License) Copyright 2023 Fonticons, Inc. --><path d="M128 0c13.3 0 24 10.7 24 24V64H296V24c0-13.3 10.7-24 24-24s24 10.7 24 24V64h40c35.3 0 64 28.7 64 64v16 48V448c0 35.3-28.7 64-64 64H64c-35.3 0-64-28.7-64-64V192 144 128C0 92.7 28.7 64 64 64h40V24c0-13.3 10.7-24 24-24zM400 192H48V448c0 8.8 7.2 16 16 16H384c8.8 0 16-7.2 16-16V192zM112 256h96c8.8 0 16 7.2 16 16v96c0 8.8-7.2 16-16 16H112c-8.8 0-16-7.2-16-16V272c0-8.8 7.2-16 16-16z"/></svg>
